homepage/img/svg-color/car.svg

<svg width="35px" height="35px" viewBox="0 0 35 35" version="1.1" xmlns="http://www.w3.org/2000/svg" xmlns:xlink="http://www.w3.org/1999/xlink">
    <!-- Generator: Sketch 51.2 (57519) - http://www.bohemiancoding.com/sketch -->
    <desc>Created with Sketch.</desc>
    <defs>
        <polygon id="path-1" points="0 0 35 0 35 34.9995 0 34.9995"></polygon>
        <polygon id="path-3" points="0 35 35 35 35 0 0 0"></polygon>
        <polygon id="path-5" points="0 35 35 35 35 0 0 0"></polygon>
        <polygon id="path-7" points="0 35 35 35 35 0 0 0"></polygon>
        <polygon id="path-9" points="0 35 35 35 35 0 0 0"></polygon>
    </defs>
    <g id="Page-1" stroke="none" stroke-width="1" fill="none" fill-rule="evenodd">
        <g id="Group">
            <circle id="Oval-2" fill="#F2B568" fill-rule="nonzero" cx="18" cy="16" r="3"></circle>
            <circle id="Oval" stroke="#FFEEBC" stroke-width="4" fill-rule="nonzero" cx="17.5" cy="17.5" r="15.5"></circle>
            <g id="cddar">
                <g id="Group-3">
                    <g id="Fill-1-Clipped">
                        <mask id="mask-2" fill="white">
                            <use xlink:href="#path-1"></use>
                        </mask>
                        <g id="path-1"></g>
                        <path d="M17.5,33.5415 C8.641,33.5415 1.458,26.3595 1.458,17.4995 C1.458,8.6405 8.641,1.4585 17.5,1.4585 C26.355,1.4685 33.531,8.6445 33.542,17.4995 C33.542,26.3595 26.359,33.5415 17.5,33.5415 M17.5,-0.0005 C7.835,-0.0005 0,7.8345 0,17.4995 C0,27.1655 7.835,34.9995 17.5,34.9995 C27.16,34.9885 34.988,27.1605 35,17.4995 C35,7.8345 27.165,-0.0005 17.5,-0.0005" id="Fill-1" fill="#000000" fill-rule="nonzero" mask="url(#mask-2)"></path>
                    </g>
                </g>
                <path d="M22.6045,28.7871 L22.6045,21.8751 C22.5995,21.8311 22.5995,21.7881 22.6045,21.7451 C22.6395,21.3781 22.9665,21.1101 23.3335,21.1461 L27.7085,21.1461 C28.1115,21.1461 28.4375,20.8191 28.4375,20.4161 C28.4375,20.0141 28.1115,19.6871 27.7085,19.6871 L23.3335,19.6871 C23.2915,19.6861 23.2505,19.6861 23.2085,19.6871 C22.0355,19.7221 21.1115,20.7011 21.1455,21.8751 L21.1455,29.3491 C19.9935,29.7031 18.7695,29.8961 17.5005,29.8961 C16.2305,29.8961 15.0065,29.7031 13.8545,29.3491 L13.8545,21.8751 C13.8555,21.8331 13.8555,21.7921 13.8545,21.7501 C13.8205,20.5771 12.8405,19.6531 11.6665,19.6871 L7.2915,19.6871 C6.8885,19.6871 6.5625,20.0141 6.5625,20.4161 C6.5625,20.8191 6.8885,21.1461 7.2915,21.1461 L11.6585,21.1461 C11.7035,21.1411 11.7485,21.1411 11.7925,21.1451 C12.1615,21.1801 12.4305,21.5071 12.3955,21.8751 L12.3955,28.7871 C8.0985,26.8411 5.1045,22.5241 5.1045,17.5001 C5.1045,15.6781 5.5065,13.9541 6.2125,12.3961 L12.3955,12.3961 C12.7985,12.3961 13.1255,12.0691 13.1255,11.6661 L13.1255,10.5131 C13.1345,10.4931 13.1425,10.4731 13.1495,10.4531 C13.2005,10.3081 13.3355,10.2101 13.4895,10.2081 L21.5105,10.2081 C21.6645,10.2101 21.7995,10.3081 21.8505,10.4531 C21.8575,10.4731 21.8655,10.4931 21.8755,10.5121 L21.8755,11.6661 C21.8755,12.0691 22.2015,12.3961 22.6045,12.3961 L28.7825,12.3961 C29.4895,13.9541 29.8935,15.6781 29.8955,17.5001 C29.8955,22.5241 26.9015,26.8411 22.6045,28.7871 M17.5005,5.1041 C21.9295,5.1091 25.8045,7.4421 27.9965,10.9371 L23.3335,10.9371 L23.3335,10.2081 C23.3295,10.0231 23.2505,9.8491 23.1145,9.7231 C22.8005,9.1271 22.1835,8.7531 21.5105,8.7501 L13.4895,8.7501 C12.8415,8.7511 12.2435,9.0971 11.9175,9.6581 C11.7575,9.7961 11.6665,9.9971 11.6665,10.2081 L11.6665,10.9371 L6.9985,10.9371 C9.1885,7.4381 13.0675,5.1041 17.5005,5.1041 M17.5005,3.6461 C9.8485,3.6461 3.6455,9.8491 3.6455,17.5001 C3.6455,25.1511 9.8485,31.3541 17.5005,31.3541 C25.1485,31.3461 31.3455,25.1481 31.3545,17.5001 C31.3545,9.8491 25.1515,3.6461 17.5005,3.6461" id="Fill-4" fill="#000000" fill-rule="nonzero"></path>
                <path d="M17.5,18.229 C16.292,18.229 15.312,17.25 15.312,16.041 C15.312,14.833 16.292,13.854 17.5,13.854 C18.708,13.854 19.688,14.833 19.688,16.041 C19.688,17.25 18.708,18.229 17.5,18.229 M17.5,12.396 C15.486,12.396 13.854,14.028 13.854,16.041 C13.854,18.055 15.486,19.687 17.5,19.687 C19.513,19.685 21.144,18.054 21.146,16.041 C21.146,14.028 19.514,12.396 17.5,12.396" id="Fill-6" fill="#000000" fill-rule="nonzero"></path>
                <g id="Fill-8-Clipped">
                    <mask id="mask-4" fill="white">
                        <use xlink:href="#path-3"></use>
                    </mask>
                    <g id="path-3"></g>
                    <polygon id="Fill-8" fill="#000000" fill-rule="nonzero" mask="url(#mask-4)" points="16.771 16.771 18.23 16.771 18.23 15.313 16.771 15.313"></polygon>
                </g>
                <g id="Fill-10-Clipped">
                    <mask id="mask-6" fill="white">
                        <use xlink:href="#path-5"></use>
                    </mask>
                    <g id="path-3"></g>
                    <path d="M16.042,23.3335 L16.771,23.3335 L16.771,26.9795 C16.771,27.3815 17.098,27.7085 17.5,27.7085 C17.902,27.7085 18.23,27.3815 18.23,26.9795 L18.23,23.3335 L18.958,23.3335 C19.361,23.3335 19.688,23.0065 19.688,22.6045 C19.688,22.2015 19.361,21.8755 18.958,21.8755 L16.042,21.8755 C15.639,21.8755 15.313,22.2015 15.313,22.6045 C15.313,23.0065 15.639,23.3335 16.042,23.3335" id="Fill-10" fill="#000000" fill-rule="nonzero" mask="url(#mask-6)"></path>
                </g>
                <g id="Fill-11-Clipped">
                    <mask id="mask-8" fill="white">
                        <use xlink:href="#path-7"></use>
                    </mask>
                    <g id="path-3"></g>
                    <path d="M25.5205,16.771 C25.1185,16.771 24.7915,16.444 24.7915,16.042 C24.7915,15.639 25.1185,15.313 25.5205,15.313 C25.9235,15.313 26.2495,15.639 26.2495,16.042 C26.2495,16.444 25.9235,16.771 25.5205,16.771 M25.5205,13.854 C24.3125,13.854 23.3325,14.834 23.3325,16.042 C23.3325,17.25 24.3125,18.229 25.5205,18.229 C26.7285,18.229 27.7085,17.25 27.7085,16.042 C27.7085,14.834 26.7285,13.854 25.5205,13.854" id="Fill-11" fill="#000000" fill-rule="nonzero" mask="url(#mask-8)"></path>
                </g>
                <g id="Fill-12-Clipped">
                    <mask id="mask-10" fill="white">
                        <use xlink:href="#path-9"></use>
                    </mask>
                    <g id="path-3"></g>
                    <path d="M9.4795,16.771 C9.0765,16.771 8.7505,16.444 8.7505,16.042 C8.7505,15.639 9.0765,15.313 9.4795,15.313 C9.8815,15.313 10.2085,15.639 10.2085,16.042 C10.2085,16.444 9.8815,16.771 9.4795,16.771 M9.4795,13.854 C8.2715,13.854 7.2915,14.834 7.2915,16.042 C7.2915,17.25 8.2715,18.229 9.4795,18.229 C10.6875,18.229 11.6675,17.25 11.6675,16.042 C11.6675,14.834 10.6875,13.854 9.4795,13.854" id="Fill-12" fill="#000000" fill-rule="nonzero" mask="url(#mask-10)"></path>
                </g>
            </g>
        </g>
    </g>
</svg>

<?xml version="1.0" encoding="utf-8"?>
<!-- Generator: Adobe Illustrator 21.0.0, SVG Export Plug-In . SVG Version: 6.00 Build 0)  -->
<svg version="1.1" id="Слой_1" xmlns="http://www.w3.org/2000/svg" xmlns:xlink="http://www.w3.org/1999/xlink" x="0px" y="0px"
	 viewBox="0 0 35 35" style="enable-background:new 0 0 35 35;" xml:space="preserve">
<style type="text/css">
	.st0{fill:#F2B568;}
	.st1{fill:none;stroke:#FFEEBC;stroke-width:4;}
	.st2{filter:url(#Adobe_OpacityMaskFilter);}
	.st3{fill:#FFFFFF;}
	.st4{mask:url(#mask-2);fill:#888888;}
	.st5{fill:#888888;}
	.st6{filter:url(#Adobe_OpacityMaskFilter_1_);}
	.st7{mask:url(#mask-4);fill:#888888;}
	.st8{filter:url(#Adobe_OpacityMaskFilter_2_);}
	.st9{mask:url(#mask-6);fill:#888888;}
	.st10{filter:url(#Adobe_OpacityMaskFilter_3_);}
	.st11{mask:url(#mask-8);fill:#888888;}
	.st12{filter:url(#Adobe_OpacityMaskFilter_4_);}
	.st13{mask:url(#mask-10);fill:#888888;}
</style>
<desc>Created with Sketch.</desc>
<g id="Page-1">
	<g id="Group">
		<circle id="Oval-2" class="st0" cx="18" cy="16" r="3"/>
		<circle id="Oval" class="st1" cx="17.5" cy="17.5" r="15.5"/>
		<g id="cddar">
			<g id="Group-3">
				<g id="Fill-1-Clipped">
					<g id="path-1_1_">
					</g>
					<defs>
						<filter id="Adobe_OpacityMaskFilter" filterUnits="userSpaceOnUse" x="0" y="0" width="35" height="35">
							<feColorMatrix  type="matrix" values="1 0 0 0 0  0 1 0 0 0  0 0 1 0 0  0 0 0 1 0"/>
						</filter>
					</defs>
					<mask maskUnits="userSpaceOnUse" x="0" y="0" width="35" height="35" id="mask-2">
						<g class="st2">
							<polygon id="path-1" class="st3" points="0,0 35,0 35,35 0,35 							"/>
						</g>
					</mask>
					<path id="Fill-1" class="st4" d="M17.5,33.5c-8.9,0-16-7.2-16-16c0-8.9,7.2-16,16-16c8.9,0,16,7.2,16,16
						C33.5,26.4,26.4,33.5,17.5,33.5 M17.5,0C7.8,0,0,7.8,0,17.5C0,27.2,7.8,35,17.5,35C27.2,35,35,27.2,35,17.5
						C35,7.8,27.2,0,17.5,0"/>
				</g>
			</g>
			<path id="Fill-4" class="st5" d="M22.6,28.8v-6.9c0,0,0-0.1,0-0.1c0-0.4,0.4-0.6,0.7-0.6h4.4c0.4,0,0.7-0.3,0.7-0.7
				c0-0.4-0.3-0.7-0.7-0.7h-4.4c0,0-0.1,0-0.1,0c-1.2,0-2.1,1-2.1,2.2v7.5c-1.2,0.4-2.4,0.5-3.6,0.5c-1.3,0-2.5-0.2-3.6-0.5v-7.5
				c0,0,0-0.1,0-0.1c0-1.2-1-2.1-2.2-2.1H7.3c-0.4,0-0.7,0.3-0.7,0.7c0,0.4,0.3,0.7,0.7,0.7h4.4c0,0,0.1,0,0.1,0
				c0.4,0,0.6,0.4,0.6,0.7v6.9c-4.3-1.9-7.3-6.3-7.3-11.3c0-1.8,0.4-3.5,1.1-5.1h6.2c0.4,0,0.7-0.3,0.7-0.7v-1.2c0,0,0,0,0-0.1
				c0.1-0.1,0.2-0.2,0.3-0.2h8c0.2,0,0.3,0.1,0.3,0.2c0,0,0,0,0,0.1v1.2c0,0.4,0.3,0.7,0.7,0.7h6.2c0.7,1.6,1.1,3.3,1.1,5.1
				C29.9,22.5,26.9,26.8,22.6,28.8 M17.5,5.1c4.4,0,8.3,2.3,10.5,5.8h-4.7v-0.7c0-0.2-0.1-0.4-0.2-0.5c-0.3-0.6-0.9-1-1.6-1h-8
				c-0.6,0-1.2,0.3-1.6,0.9c-0.2,0.1-0.3,0.3-0.3,0.6v0.7H7C9.2,7.4,13.1,5.1,17.5,5.1 M17.5,3.6C9.8,3.6,3.6,9.8,3.6,17.5
				s6.2,13.9,13.9,13.9c7.6,0,13.8-6.2,13.9-13.9C31.4,9.8,25.2,3.6,17.5,3.6"/>
			<path id="Fill-6" class="st5" d="M17.5,18.2c-1.2,0-2.2-1-2.2-2.2c0-1.2,1-2.2,2.2-2.2s2.2,1,2.2,2.2
				C19.7,17.2,18.7,18.2,17.5,18.2 M17.5,12.4c-2,0-3.6,1.6-3.6,3.6c0,2,1.6,3.6,3.6,3.6c2,0,3.6-1.6,3.6-3.6
				C21.1,14,19.5,12.4,17.5,12.4"/>
			<g id="Fill-8-Clipped">
				<g id="path-3_1_">
				</g>
				<defs>
					<filter id="Adobe_OpacityMaskFilter_1_" filterUnits="userSpaceOnUse" x="16.8" y="15.3" width="1.5" height="1.5">
						<feColorMatrix  type="matrix" values="1 0 0 0 0  0 1 0 0 0  0 0 1 0 0  0 0 0 1 0"/>
					</filter>
				</defs>
				<mask maskUnits="userSpaceOnUse" x="16.8" y="15.3" width="1.5" height="1.5" id="mask-4">
					<g class="st6">
						<polygon id="path-3" class="st3" points="0,35 35,35 35,0 0,0 						"/>
					</g>
				</mask>
				<polygon id="Fill-8" class="st7" points="16.8,16.8 18.2,16.8 18.2,15.3 16.8,15.3 				"/>
			</g>
			<g id="Fill-10-Clipped">
				<g id="path-3_2_">
				</g>
				<defs>
					<filter id="Adobe_OpacityMaskFilter_2_" filterUnits="userSpaceOnUse" x="15.3" y="21.9" width="4.4" height="5.8">
						<feColorMatrix  type="matrix" values="1 0 0 0 0  0 1 0 0 0  0 0 1 0 0  0 0 0 1 0"/>
					</filter>
				</defs>
				<mask maskUnits="userSpaceOnUse" x="15.3" y="21.9" width="4.4" height="5.8" id="mask-6">
					<g class="st8">
						<polygon id="path-5" class="st3" points="0,35 35,35 35,0 0,0 						"/>
					</g>
				</mask>
				<path id="Fill-10" class="st9" d="M16,23.3h0.7V27c0,0.4,0.3,0.7,0.7,0.7s0.7-0.3,0.7-0.7v-3.6H19c0.4,0,0.7-0.3,0.7-0.7
					c0-0.4-0.3-0.7-0.7-0.7H16c-0.4,0-0.7,0.3-0.7,0.7C15.3,23,15.6,23.3,16,23.3"/>
			</g>
			<g id="Fill-11-Clipped">
				<g id="path-3_3_">
				</g>
				<defs>
					<filter id="Adobe_OpacityMaskFilter_3_" filterUnits="userSpaceOnUse" x="23.3" y="13.9" width="4.4" height="4.4">
						<feColorMatrix  type="matrix" values="1 0 0 0 0  0 1 0 0 0  0 0 1 0 0  0 0 0 1 0"/>
					</filter>
				</defs>
				<mask maskUnits="userSpaceOnUse" x="23.3" y="13.9" width="4.4" height="4.4" id="mask-8">
					<g class="st10">
						<polygon id="path-7" class="st3" points="0,35 35,35 35,0 0,0 						"/>
					</g>
				</mask>
				<path id="Fill-11" class="st11" d="M25.5,16.8c-0.4,0-0.7-0.3-0.7-0.7c0-0.4,0.3-0.7,0.7-0.7c0.4,0,0.7,0.3,0.7,0.7
					C26.2,16.4,25.9,16.8,25.5,16.8 M25.5,13.9c-1.2,0-2.2,1-2.2,2.2s1,2.2,2.2,2.2s2.2-1,2.2-2.2S26.7,13.9,25.5,13.9"/>
			</g>
			<g id="Fill-12-Clipped">
				<g id="path-3_4_">
				</g>
				<defs>
					<filter id="Adobe_OpacityMaskFilter_4_" filterUnits="userSpaceOnUse" x="7.3" y="13.9" width="4.4" height="4.4">
						<feColorMatrix  type="matrix" values="1 0 0 0 0  0 1 0 0 0  0 0 1 0 0  0 0 0 1 0"/>
					</filter>
				</defs>
				<mask maskUnits="userSpaceOnUse" x="7.3" y="13.9" width="4.4" height="4.4" id="mask-10">
					<g class="st12">
						<polygon id="path-9" class="st3" points="0,35 35,35 35,0 0,0 						"/>
					</g>
				</mask>
				<path id="Fill-12" class="st13" d="M9.5,16.8c-0.4,0-0.7-0.3-0.7-0.7c0-0.4,0.3-0.7,0.7-0.7c0.4,0,0.7,0.3,0.7,0.7
					C10.2,16.4,9.9,16.8,9.5,16.8 M9.5,13.9c-1.2,0-2.2,1-2.2,2.2s1,2.2,2.2,2.2s2.2-1,2.2-2.2S10.7,13.9,9.5,13.9"/>
			</g>
		</g>
	</g>
</g>
</svg>
